src/img/icons/filter.svg

<svg width="32" height="32" viewBox="0 0 32 32" fill="none" xmlns="http://www.w3.org/2000/svg">
<path d="M15.5452 30C15.2591 30 15.0209 29.9037 14.8308 29.7112C14.6407 29.5184 14.5456 29.2796 14.5456 28.9948V22.4924C14.5456 22.2143 14.6424 21.9772 14.836 21.7812C15.0299 21.5852 15.2699 21.4872 15.556 21.4872C15.8424 21.4872 16.0807 21.5852 16.2708 21.7812C16.4609 21.9772 16.556 22.2143 16.556 22.4924V24.7468H28.9948C29.2796 24.7468 29.5184 24.8436 29.7112 25.0372C29.9037 25.2308 30 25.4708 30 25.7572C30 26.0436 29.9037 26.2817 29.7112 26.4716C29.5184 26.6617 29.2796 26.7568 28.9948 26.7568H16.556V28.9948C16.556 29.2796 16.4591 29.5184 16.2652 29.7112C16.0716 29.9037 15.8316 30 15.5452 30ZM3.0052 26.7568C2.7204 26.7568 2.4816 26.66 2.2888 26.4664C2.09627 26.2728 2 26.0328 2 25.7464C2 25.46 2.09627 25.2219 2.2888 25.032C2.4816 24.8419 2.7204 24.7468 3.0052 24.7468H9.9304C10.2152 24.7468 10.4539 24.8436 10.6464 25.0372C10.8389 25.2308 10.9352 25.4708 10.9352 25.7572C10.9352 26.0436 10.8389 26.2817 10.6464 26.4716C10.4539 26.6617 10.2152 26.7568 9.9304 26.7568H3.0052ZM9.9248 20.248C9.6384 20.248 9.40027 20.1517 9.2104 19.9592C9.02027 19.7667 8.9252 19.528 8.9252 19.2432V17.0052H3.0052C2.7204 17.0052 2.4816 16.9083 2.2888 16.7144C2.09627 16.5208 2 16.2809 2 15.9948C2 15.7084 2.09627 15.4701 2.2888 15.28C2.4816 15.0899 2.7204 14.9948 3.0052 14.9948H8.9252V12.724C8.9252 12.4392 9.022 12.2005 9.2156 12.008C9.4092 11.8155 9.6492 11.7192 9.9356 11.7192C10.222 11.7192 10.4603 11.8155 10.6504 12.008C10.8403 12.2005 10.9352 12.4392 10.9352 12.724V19.2432C10.9352 19.528 10.8384 19.7667 10.6448 19.9592C10.4512 20.1517 10.2112 20.248 9.9248 20.248ZM15.5508 17.0052C15.266 17.0052 15.0273 16.9083 14.8348 16.7144C14.642 16.5208 14.5456 16.2809 14.5456 15.9948C14.5456 15.7084 14.642 15.4701 14.8348 15.28C15.0273 15.0899 15.266 14.9948 15.5508 14.9948H28.9948C29.2796 14.9948 29.5184 15.0917 29.7112 15.2856C29.9037 15.4792 30 15.7191 30 16.0052C30 16.2916 29.9037 16.5299 29.7112 16.72C29.5184 16.9101 29.2796 17.0052 28.9948 17.0052H15.5508ZM22.0644 10.5024C21.778 10.5024 21.5397 10.4061 21.3496 10.2136C21.1597 10.0211 21.0648 9.7824 21.0648 9.4976V3.0052C21.0648 2.7204 21.1616 2.4816 21.3552 2.2888C21.5488 2.09627 21.7888 2 22.0752 2C22.3616 2 22.5997 2.09627 22.7896 2.2888C22.9797 2.4816 23.0748 2.7204 23.0748 3.0052V5.2432H28.9948C29.2796 5.2432 29.5184 5.34 29.7112 5.5336C29.9037 5.7272 30 5.9672 30 6.2536C30 6.54 29.9037 6.77813 29.7112 6.968C29.5184 7.15813 29.2796 7.2532 28.9948 7.2532H23.0748V9.4976C23.0748 9.7824 22.978 10.0211 22.7844 10.2136C22.5908 10.4061 22.3508 10.5024 22.0644 10.5024ZM3.0052 7.2532C2.7204 7.2532 2.4816 7.1564 2.2888 6.9628C2.09627 6.7692 2 6.5292 2 6.2428C2 5.9564 2.09627 5.71827 2.2888 5.5284C2.4816 5.33827 2.7204 5.2432 3.0052 5.2432H16.4492C16.734 5.2432 16.9727 5.34 17.1652 5.5336C17.358 5.7272 17.4544 5.9672 17.4544 6.2536C17.4544 6.54 17.358 6.77813 17.1652 6.968C16.9727 7.15813 16.734 7.2532 16.4492 7.2532H3.0052Z" fill="#131212"/>
</svg>

<svg xmlns="http://www.w3.org/2000/svg" viewBox="0 0 32 32">
  <path fill="currentColor" d="M15.545 30a.98.98 0 0 1-1-1.005v-6.503a.97.97 0 0 1 .291-.71.973.973 0 0 1 .72-.295c.286 0 .525.098.715.294.19.196.285.433.285.711v2.255h12.439a.97.97 0 0 1 .716.29.98.98 0 0 1 .289.72.98.98 0 0 1-1.005 1H16.556v2.238a.97.97 0 0 1-.29.716.98.98 0 0 1-.72.289Zm-12.54-3.243a.97.97 0 0 1-.716-.29.98.98 0 0 1-.289-.72.98.98 0 0 1 1.005-1H9.93a.97.97 0 0 1 .716.29.98.98 0 0 1 .29.72.979.979 0 0 1-1.005 1H3.004Zm6.92-6.509a.979.979 0 0 1-1-1.005v-2.238h-5.92a.97.97 0 0 1-.716-.29.98.98 0 0 1-.289-.72.98.98 0 0 1 1.005-1h5.92v-2.271a.97.97 0 0 1 .29-.716.98.98 0 0 1 .72-.289.98.98 0 0 1 1 1.005v6.52a.97.97 0 0 1-.29.715.98.98 0 0 1-.72.289Zm5.626-3.243a.969.969 0 0 1-.716-.29.98.98 0 0 1-.29-.72c0-.287.097-.525.29-.715a.979.979 0 0 1 .716-.285h13.444a.97.97 0 0 1 .716.29.98.98 0 0 1 .289.72.98.98 0 0 1-1.005 1H15.55Zm6.513-6.503a.98.98 0 0 1-1-1.005V3.006a.97.97 0 0 1 .291-.716.98.98 0 0 1 .72-.289.98.98 0 0 1 1 1.005v2.238h5.92a.97.97 0 0 1 .716.29.98.98 0 0 1 .289.72.98.98 0 0 1-1.005 1h-5.92v2.245a.97.97 0 0 1-.29.716.98.98 0 0 1-.72.288ZM3.005 7.253a.97.97 0 0 1-.716-.29.98.98 0 0 1-.289-.72.98.98 0 0 1 1.005-1H16.45a.97.97 0 0 1 .716.29.98.98 0 0 1 .29.72.979.979 0 0 1-1.005 1H3.004Z"/>
</svg>
